icon-themes/sifr_svg/cmd/sc_symbolshapes.octagon-bevel.svg

<svg viewBox="0 0 16 16" xmlns="http://www.w3.org/2000/svg"><g fill="#555753"><path d="m5 1-4 4v6l4 4h6l4-4v-6l-4-4zm1.9160156 2h2.1621094l-.7050781 1.5957031-.390625.8828125-.3769531-.8730468zm4.0136724.7578125 1.310546 1.3105469-1.634765.7011718-.6953128.2988282.2929688-.6640625zm-5.8613286.0019531.7011718 1.6347656.2890626.6757813-.6582032-.2871094-1.640625-.7148437zm2.2695312 2.7402344h1.3242188l.8378906.8378906v1.3242188l-.8378906.8378906h-1.3242188l-.8378906-.8378906v-1.3242188zm5.6621094.4160156v2.1464844l-1.568359-.7480469-.796875-.3808593.759765-.3261719zm-10 .0019532 1.5996094.6992187.8027344.3496094-.8203126.3769531-1.5820312.7285156zm6.8808594 2.8730468.6874996.3281254 1.681641.802734-1.318359 1.318359-.701172-1.634765zm-3.7460938.0410156-.3378906.7636718-.7265625 1.646485-1.3164063-1.316407 1.6640626-.765625zm1.8828125.6894528.375.873047.6914063 1.605469h-2.1621094l.7050781-1.595703z"/><path d="m5.828125 3h4.34375l2.828125 2.828125v4.34375l-2.828125 2.828125h-4.34375l-2.828125-2.828125v-4.34375z" opacity=".35"/></g></svg>

<svg xmlns="http://www.w3.org/2000/svg" viewBox="0 0 16 16">
  <path
     style="fill:#555753"
     d="M 5 1 L 1 5 L 1 11 L 5 15 L 11 15 L 15 11 L 15 5 L 11 1 L 5 1 z M 6.9160156 3 L 9.078125 3 L 8.3730469 4.5957031 L 7.9824219 5.4785156 L 7.6054688 4.6054688 L 6.9160156 3 z M 10.929688 3.7578125 L 12.240234 5.0683594 L 10.605469 5.7695312 L 9.9101562 6.0683594 L 10.203125 5.4042969 L 10.929688 3.7578125 z M 5.0683594 3.7597656 L 5.7695312 5.3945312 L 6.0585938 6.0703125 L 5.4003906 5.7832031 L 3.7597656 5.0683594 L 5.0683594 3.7597656 z M 7.3378906 6.5 L 8.6621094 6.5 L 9.5 7.3378906 L 9.5 8.6621094 L 8.6621094 9.5 L 7.3378906 9.5 L 6.5 8.6621094 L 6.5 7.3378906 L 7.3378906 6.5 z M 13 6.9160156 L 13 9.0625 L 11.431641 8.3144531 L 10.634766 7.9335938 L 11.394531 7.6074219 L 13 6.9160156 z M 3 6.9179688 L 4.5996094 7.6171875 L 5.4023438 7.9667969 L 4.5820312 8.34375 L 3 9.0722656 L 3 6.9179688 z M 9.8808594 9.7910156 L 10.568359 10.119141 L 12.25 10.921875 L 10.931641 12.240234 L 10.230469 10.605469 L 9.8808594 9.7910156 z M 6.1347656 9.8320312 L 5.796875 10.595703 L 5.0703125 12.242188 L 3.7539062 10.925781 L 5.4179688 10.160156 L 6.1347656 9.8320312 z M 8.0175781 10.521484 L 8.3925781 11.394531 L 9.0839844 13 L 6.921875 13 L 7.6269531 11.404297 L 8.0175781 10.521484 z "
     />
  <path
     style="fill:#555753;opacity:0.35"
     d="m 5.828125,3 h 4.34375 L 13,5.828125 v 4.34375 L 10.171875,13 H 5.828125 L 3,10.171875 v -4.34375 z"
     />
</svg>
